doc/UserGuideJa/fig/svg/tbl-5-1-1-f.svg

<?xml version="1.0" encoding="UTF-8" standalone="no"?>
<!-- Created with Inkscape (http://www.inkscape.org/) -->

<svg
   xmlns:dc="http://purl.org/dc/elements/1.1/"
   xmlns:cc="http://creativecommons.org/ns#"
   xmlns:rdf="http://www.w3.org/1999/02/22-rdf-syntax-ns#"
   xmlns:svg="http://www.w3.org/2000/svg"
   xmlns="http://www.w3.org/2000/svg"
   xmlns:sodipodi="http://sodipodi.sourceforge.net/DTD/sodipodi-0.dtd"
   xmlns:inkscape="http://www.inkscape.org/namespaces/inkscape"
   id="svg4980"
   sodipodi:version="0.32"
   inkscape:version="0.48.2 r9819"
   width="89.169998"
   height="89.168747"
   xml:space="preserve"
   sodipodi:docname="tbl-5-1-1-f.svg"
   version="1.0"
   inkscape:output_extension="org.inkscape.output.svg.inkscape"><metadata
     id="metadata4985"><rdf:RDF><cc:Work
         rdf:about=""><dc:format>image/svg+xml</dc:format><dc:type
           rdf:resource="http://purl.org/dc/dcmitype/StillImage" /></cc:Work></rdf:RDF></metadata><defs
     id="defs4983"><inkscape:perspective
   sodipodi:type="inkscape:persp3d"
   inkscape:vp_x="0 : 526.18109 : 1"
   inkscape:vp_y="0 : 1000 : 0"
   inkscape:vp_z="744.09448 : 526.18109 : 1"
   inkscape:persp3d-origin="372.04724 : 350.78739 : 1"
   id="perspective4987" /><clipPath
   clipPathUnits="userSpaceOnUse"
   id="clipPath5003"><path
     d="M 0,0 L 73,0 L 73,74 L 0,74 L 0,0 z"
     id="path5005" /></clipPath>





</defs><sodipodi:namedview
     inkscape:window-height="920"
     inkscape:window-width="1680"
     inkscape:pageshadow="2"
     inkscape:pageopacity="0.0"
     guidetolerance="10.0"
     gridtolerance="10.0"
     objecttolerance="10.0"
     borderopacity="1.0"
     bordercolor="#666666"
     pagecolor="#ffffff"
     id="base"
     showgrid="false"
     inkscape:zoom="5.3405405"
     inkscape:cx="45.625"
     inkscape:cy="46.25"
     inkscape:window-x="0"
     inkscape:window-y="0"
     inkscape:current-layer="g4989"
     inkscape:window-maximized="0" /><g
     id="g4989"
     inkscape:groupmode="layer"
     inkscape:label="tbl-5-1-1f"
     transform="matrix(1.25,0,0,-1.25,-1.38625,90.8975)"><path
       inkscape:connector-curvature="0"
       d="m 1.345,1.619 56.691,0 0,56.691 -56.691,0 0,-56.691 z"
       style="fill:none;stroke:#000000;stroke-width:0.47199999999999998;stroke-linecap:butt;stroke-linejoin:miter;stroke-miterlimit:10;stroke-opacity:1;stroke-dasharray:none"
       id="path5007" /><path
       inkscape:connector-curvature="0"
       d="M 1.345,58.31 15.519,72.482"
       style="fill:none;stroke:#000000;stroke-width:0.47199999999999998;stroke-linecap:butt;stroke-linejoin:miter;stroke-miterlimit:10;stroke-opacity:1;stroke-dasharray:none"
       id="path5009" /><path
       inkscape:connector-curvature="0"
       d="M 58.036,1.619 72.209,15.791"
       style="fill:none;stroke:#000000;stroke-width:0.47199999999999998;stroke-linecap:butt;stroke-linejoin:miter;stroke-miterlimit:10;stroke-opacity:1;stroke-dasharray:none"
       id="path5011" /><path
       inkscape:connector-curvature="0"
       d="M 58.036,58.31 72.209,72.482"
       style="fill:none;stroke:#000000;stroke-width:0.47199999999999998;stroke-linecap:butt;stroke-linejoin:miter;stroke-miterlimit:10;stroke-opacity:1;stroke-dasharray:none"
       id="path5013" /><path
       inkscape:connector-curvature="0"
       d="M 1.345,1.619 15.519,15.791"
       style="fill:none;stroke:#000000;stroke-width:0.47199999999999998;stroke-linecap:butt;stroke-linejoin:miter;stroke-miterlimit:10;stroke-opacity:1;stroke-dasharray:1.88999999999999990, 1.88999999999999990;stroke-dashoffset:0"
       id="path5015" /><path
       inkscape:connector-curvature="0"
       d="m 15.519,72.482 56.69,0 0,-56.691"
       style="fill:none;stroke:#000000;stroke-width:0.47199999999999998;stroke-linecap:butt;stroke-linejoin:miter;stroke-miterlimit:10;stroke-opacity:1;stroke-dasharray:none"
       id="path5017" /><path
       inkscape:connector-curvature="0"
       d="m 15.266,15.791 0.505,0"
       style="fill:none;stroke:#000000;stroke-width:0.47199999999999998;stroke-linecap:butt;stroke-linejoin:miter;stroke-miterlimit:10;stroke-opacity:1;stroke-dasharray:none"
       id="path5019" /><path
       inkscape:connector-curvature="0"
       d="m 15.266,72.482 0.505,0"
       style="fill:none;stroke:#000000;stroke-width:0.47199999999999998;stroke-linecap:butt;stroke-linejoin:miter;stroke-miterlimit:10;stroke-opacity:1;stroke-dasharray:none"
       id="path5021" /><path
       inkscape:connector-curvature="0"
       d="m 15.519,72.482 0,-56.691 56.69,0"
       style="fill:none;stroke:#000000;stroke-width:0.47199999999999998;stroke-linecap:butt;stroke-linejoin:miter;stroke-miterlimit:10;stroke-opacity:1;stroke-dasharray:1.88999999999999990, 1.88999999999999990;stroke-dashoffset:0"
       id="path5023" /><text
       transform="scale(1,-1)"
       id="text5025"
       x="6.4257998"
       y="-31.940901"
       style="-inkscape-font-specification:LMRoman10;font-family:LMRoman10;font-weight:normal;font-style:normal;font-stretch:normal;font-variant:normal;font-size:9.96259994px;text-anchor:start;text-align:start;writing-mode:lr;line-height:125%"
       sodipodi:linespacing="125%"><tspan
         style="font-size:9.96259994px;font-variant:normal;font-weight:normal;font-stretch:normal;writing-mode:lr;fill:#000000;fill-opacity:1;fill-rule:nonzero;stroke:none;font-family:LMRoman10;-inkscape-font-specification:LMRoman10;font-style:normal;text-anchor:start;text-align:start;line-height:125%"
         x="6.4257998"
         y="-31.940901"
         id="tspan5027">0</tspan></text>
<text
       transform="scale(1,-1)"
       id="text5029"
       x="63.125999"
       y="-34.776402"
       style="-inkscape-font-specification:LMRoman10;font-family:LMRoman10;font-weight:normal;font-style:normal;font-stretch:normal;font-variant:normal;font-size:9.96259994px;text-anchor:start;text-align:start;writing-mode:lr;line-height:125%"
       sodipodi:linespacing="125%"><tspan
         style="font-size:9.96259994px;font-variant:normal;font-weight:normal;font-stretch:normal;writing-mode:lr;fill:#000000;fill-opacity:1;fill-rule:nonzero;stroke:none;font-family:LMRoman10;-inkscape-font-specification:LMRoman10;font-style:normal;text-anchor:start;text-align:start;line-height:125%"
         x="63.125999"
         y="-34.776402"
         id="tspan5031">1</tspan></text>
<text
       transform="scale(1,-1)"
       id="text5033"
       x="26.2705"
       y="-29.1064"
       style="-inkscape-font-specification:LMRoman10;font-family:LMRoman10;font-weight:normal;font-style:normal;font-stretch:normal;font-variant:normal;font-size:9.96259994px;text-anchor:start;text-align:start;writing-mode:lr;line-height:125%"
       sodipodi:linespacing="125%"><tspan
         style="font-size:9.96259994px;font-variant:normal;font-weight:normal;font-stretch:normal;writing-mode:lr;fill:#000000;fill-opacity:1;fill-rule:nonzero;stroke:none;font-family:LMRoman10;-inkscape-font-specification:LMRoman10;font-style:normal;text-anchor:start;text-align:start;line-height:125%"
         x="26.2705"
         y="-29.1064"
         id="tspan5035">2</tspan></text>
<text
       transform="scale(1,-1)"
       id="text5037"
       x="40.446301"
       y="-40.446301"
       style="-inkscape-font-specification:LMRoman10;font-family:LMRoman10;font-weight:normal;font-style:normal;font-stretch:normal;font-variant:normal;font-size:9.96259994px;text-anchor:start;text-align:start;writing-mode:lr;line-height:125%"
       sodipodi:linespacing="125%"><tspan
         style="font-size:9.96259994px;font-variant:normal;font-weight:normal;font-stretch:normal;writing-mode:lr;fill:#000000;fill-opacity:1;fill-rule:nonzero;stroke:none;font-family:LMRoman10;-inkscape-font-specification:LMRoman10;font-style:normal;text-anchor:start;text-align:start;line-height:125%"
         x="40.446301"
         y="-40.446301"
         id="tspan5039">3</tspan></text>
<text
       transform="scale(1,-1)"
       id="text5041"
       x="34.776402"
       y="-63.117199"
       style="-inkscape-font-specification:LMRoman10;font-family:LMRoman10;font-weight:normal;font-style:normal;font-stretch:normal;font-variant:normal;font-size:9.96259994px;text-anchor:start;text-align:start;writing-mode:lr;line-height:125%"
       sodipodi:linespacing="125%"><tspan
         style="font-size:9.96259994px;font-variant:normal;font-weight:normal;font-stretch:normal;writing-mode:lr;fill:#000000;fill-opacity:1;fill-rule:nonzero;stroke:none;font-family:LMRoman10;-inkscape-font-specification:LMRoman10;font-style:normal;text-anchor:start;text-align:start;line-height:125%"
         x="34.776402"
         y="-63.117199"
         id="tspan5043">5</tspan></text>
<text
       transform="scale(1,-1)"
       id="text5045"
       x="34.776402"
       y="-6.4263"
       style="-inkscape-font-specification:LMRoman10;font-family:LMRoman10;font-weight:normal;font-style:normal;font-stretch:normal;font-variant:normal;font-size:9.96259994px;text-anchor:start;text-align:start;writing-mode:lr;line-height:125%"
       sodipodi:linespacing="125%"><tspan
         style="font-size:9.96259994px;font-variant:normal;font-weight:normal;font-stretch:normal;writing-mode:lr;fill:#000000;fill-opacity:1;fill-rule:nonzero;stroke:none;font-family:LMRoman10;-inkscape-font-specification:LMRoman10;font-style:normal;text-anchor:start;text-align:start;line-height:125%"
         x="34.776402"
         y="-6.4263"
         id="tspan5047">4</tspan></text>
</g></svg>

<?xml version="1.0" encoding="UTF-8" standalone="no"?>
<!-- Created with Inkscape (http://www.inkscape.org/) -->
<svg
   xmlns:dc="http://purl.org/dc/elements/1.1/"
   xmlns:cc="http://creativecommons.org/ns#"
   xmlns:rdf="http://www.w3.org/1999/02/22-rdf-syntax-ns#"
   xmlns:svg="http://www.w3.org/2000/svg"
   xmlns="http://www.w3.org/2000/svg"
   xmlns:sodipodi="http://sodipodi.sourceforge.net/DTD/sodipodi-0.dtd"
   xmlns:inkscape="http://www.inkscape.org/namespaces/inkscape"
   id="svg4980"
   sodipodi:version="0.32"
   inkscape:version="0.46"
   width="89.169998"
   height="89.168747"
   xml:space="preserve"
   sodipodi:docname="tbl-5-1-1f.svg"
   version="1.0"
   inkscape:output_extension="org.inkscape.output.svg.inkscape"><metadata
     id="metadata4985"><rdf:RDF><cc:Work
         rdf:about=""><dc:format>image/svg+xml</dc:format><dc:type
           rdf:resource="http://purl.org/dc/dcmitype/StillImage" /></cc:Work></rdf:RDF></metadata><defs
     id="defs4983"><inkscape:perspective
       sodipodi:type="inkscape:persp3d"
       inkscape:vp_x="0 : 526.18109 : 1"
       inkscape:vp_y="0 : 1000 : 0"
       inkscape:vp_z="744.09448 : 526.18109 : 1"
       inkscape:persp3d-origin="372.04724 : 350.78739 : 1"
       id="perspective4987" /><clipPath
       clipPathUnits="userSpaceOnUse"
       id="clipPath5003"><path
         d="M 0,0 L 73,0 L 73,74 L 0,74 L 0,0 z"
         id="path5005" /></clipPath></defs><sodipodi:namedview
     inkscape:window-height="722"
     inkscape:window-width="789"
     inkscape:pageshadow="2"
     inkscape:pageopacity="0.0"
     guidetolerance="10.0"
     gridtolerance="10.0"
     objecttolerance="10.0"
     borderopacity="1.0"
     bordercolor="#666666"
     pagecolor="#ffffff"
     id="base"
     showgrid="false"
     inkscape:zoom="5.3405405"
     inkscape:cx="45.625"
     inkscape:cy="46.25"
     inkscape:window-x="0"
     inkscape:window-y="25"
     inkscape:current-layer="g4989" /><g
     id="g4989"
     inkscape:groupmode="layer"
     inkscape:label="tbl-5-1-1f"
     transform="matrix(1.25,0,0,-1.25,-1.38625,90.8975)"><g
       clip-path="none"
       id="g4993"><g
         id="g4999"><g
           clip-path="url(#clipPath5003)"
           id="g5001"><path
             id="path5007"
             style="fill:none;stroke:#000000;stroke-width:0.472;stroke-linecap:butt;stroke-linejoin:miter;stroke-miterlimit:10;stroke-dasharray:none;stroke-opacity:1"
             d="M 1.345,1.619 L 58.036,1.619 L 58.036,58.31 L 1.345,58.31 L 1.345,1.619 z" /><path
             id="path5009"
             style="fill:none;stroke:#000000;stroke-width:0.472;stroke-linecap:butt;stroke-linejoin:miter;stroke-miterlimit:10;stroke-dasharray:none;stroke-opacity:1"
             d="M 1.345,58.31 L 15.519,72.482" /><path
             id="path5011"
             style="fill:none;stroke:#000000;stroke-width:0.472;stroke-linecap:butt;stroke-linejoin:miter;stroke-miterlimit:10;stroke-dasharray:none;stroke-opacity:1"
             d="M 58.036,1.619 L 72.209,15.791" /><path
             id="path5013"
             style="fill:none;stroke:#000000;stroke-width:0.472;stroke-linecap:butt;stroke-linejoin:miter;stroke-miterlimit:10;stroke-dasharray:none;stroke-opacity:1"
             d="M 58.036,58.31 L 72.209,72.482" /><path
             id="path5015"
             style="fill:none;stroke:#000000;stroke-width:0.472;stroke-linecap:butt;stroke-linejoin:miter;stroke-miterlimit:10;stroke-dasharray:1.89, 1.89;stroke-dashoffset:0;stroke-opacity:1"
             d="M 1.345,1.619 L 15.519,15.791" /><path
             id="path5017"
             style="fill:none;stroke:#000000;stroke-width:0.472;stroke-linecap:butt;stroke-linejoin:miter;stroke-miterlimit:10;stroke-dasharray:none;stroke-opacity:1"
             d="M 15.519,72.482 L 72.209,72.482 L 72.209,15.791" /><path
             id="path5019"
             style="fill:none;stroke:#000000;stroke-width:0.472;stroke-linecap:butt;stroke-linejoin:miter;stroke-miterlimit:10;stroke-dasharray:none;stroke-opacity:1"
             d="M 15.266,15.791 L 15.771,15.791" /><path
             id="path5021"
             style="fill:none;stroke:#000000;stroke-width:0.472;stroke-linecap:butt;stroke-linejoin:miter;stroke-miterlimit:10;stroke-dasharray:none;stroke-opacity:1"
             d="M 15.266,72.482 L 15.771,72.482" /><path
             id="path5023"
             style="fill:none;stroke:#000000;stroke-width:0.472;stroke-linecap:butt;stroke-linejoin:miter;stroke-miterlimit:10;stroke-dasharray:1.89, 1.89;stroke-dashoffset:0;stroke-opacity:1"
             d="M 15.519,72.482 L 15.519,15.791 L 72.209,15.791" /></g></g><text
         id="text5025"
         transform="matrix(1,0,0,-1,6.4258,31.9409)"><tspan
           id="tspan5027"
           y="0"
           x="0"
           style="font-size:9.96259975px;font-variant:normal;font-weight:normal;font-stretch:normal;writing-mode:lr-tb;fill:#000000;fill-opacity:1;fill-rule:nonzero;stroke:none;font-family:cmr 10;-inkscape-font-specification:cmr10">0</tspan></text>
<text
         id="text5029"
         transform="matrix(1,0,0,-1,63.126,34.7764)"><tspan
           id="tspan5031"
           y="0"
           x="0"
           style="font-size:9.96259975px;font-variant:normal;font-weight:normal;font-stretch:normal;writing-mode:lr-tb;fill:#000000;fill-opacity:1;fill-rule:nonzero;stroke:none;font-family:cmr 10;-inkscape-font-specification:cmr10">1</tspan></text>
<text
         id="text5033"
         transform="matrix(1,0,0,-1,26.2705,29.1064)"><tspan
           id="tspan5035"
           y="0"
           x="0"
           style="font-size:9.96259975px;font-variant:normal;font-weight:normal;font-stretch:normal;writing-mode:lr-tb;fill:#000000;fill-opacity:1;fill-rule:nonzero;stroke:none;font-family:cmr 10;-inkscape-font-specification:cmr10">2</tspan></text>
<text
         id="text5037"
         transform="matrix(1,0,0,-1,40.4463,40.4463)"><tspan
           id="tspan5039"
           y="0"
           x="0"
           style="font-size:9.96259975px;font-variant:normal;font-weight:normal;font-stretch:normal;writing-mode:lr-tb;fill:#000000;fill-opacity:1;fill-rule:nonzero;stroke:none;font-family:cmr 10;-inkscape-font-specification:cmr10">3</tspan></text>
<text
         id="text5041"
         transform="matrix(1,0,0,-1,34.7764,63.1172)"><tspan
           id="tspan5043"
           y="0"
           x="0"
           style="font-size:9.96259975px;font-variant:normal;font-weight:normal;font-stretch:normal;writing-mode:lr-tb;fill:#000000;fill-opacity:1;fill-rule:nonzero;stroke:none;font-family:cmr 10;-inkscape-font-specification:cmr10">5</tspan></text>
<text
         id="text5045"
         transform="matrix(1,0,0,-1,34.7764,6.4263)"><tspan
           id="tspan5047"
           y="0"
           x="0"
           style="font-size:9.96259975px;font-variant:normal;font-weight:normal;font-stretch:normal;writing-mode:lr-tb;fill:#000000;fill-opacity:1;fill-rule:nonzero;stroke:none;font-family:cmr 10;-inkscape-font-specification:cmr10">4</tspan></text>
</g></g></svg>
